categories/48/applications-mathematics.svg

<?xml version="1.0" encoding="UTF-8" standalone="no"?>
<!-- Created with Inkscape (http://www.inkscape.org/) -->
<svg id="svg2" xmlns="http://www.w3.org/2000/svg" height="48" width="48" version="1.0" xmlns:xlink="http://www.w3.org/1999/xlink">
 <defs id="defs4">
  <linearGradient id="linearGradient2091">
   <stop id="stop2093" style="stop-opacity:.39216" offset="0"/>
   <stop id="stop3169" style="stop-opacity:.31373" offset=".5"/>
   <stop id="stop2095" style="stop-opacity:0" offset="1"/>
  </linearGradient>
  <radialGradient id="radialGradient2410" xlink:href="#linearGradient2091" gradientUnits="userSpaceOnUse" cy="35.127" cx="23.071" gradientTransform="matrix(.91481 .012650 -.0082150 .21356 2.2539 27.189)" r="10.319"/>
  <linearGradient id="linearGradient3203">
   <stop id="stop3205" style="stop-color:#777976" offset="0"/>
   <stop id="stop3207" style="stop-color:#565755" offset="1"/>
  </linearGradient>
  <linearGradient id="linearGradient3217" y2="22" gradientUnits="userSpaceOnUse" x2="16" y1="3" x1="11">
   <stop id="stop2778" style="stop-color:#8badea" offset="0"/>
   <stop id="stop2780" style="stop-color:#6396cd" offset=".26238"/>
   <stop id="stop2782" style="stop-color:#3b7caf" offset=".66094"/>
   <stop id="stop2784" style="stop-color:#194c70" offset="1"/>
  </linearGradient>
  <linearGradient id="linearGradient3167" y2="32.702" xlink:href="#linearGradient7916" gradientUnits="userSpaceOnUse" x2="16.331" gradientTransform="matrix(.53153 -.53096 .53153 .53096 -14.042 11.965)" y1="13.023" x1="36.011"/>
  <linearGradient id="linearGradient7916">
   <stop id="stop7918" style="stop-color:#fff" offset="0"/>
   <stop id="stop7920" style="stop-color:#fff;stop-opacity:0" offset="1"/>
  </linearGradient>
  <linearGradient id="linearGradient2419" y2="32.702" xlink:href="#linearGradient7916" gradientUnits="userSpaceOnUse" x2="16.331" gradientTransform="matrix(.53153 -.53096 .53153 .53096 -14.578 12.233)" y1="20.584" x1="28.449"/>
  <radialGradient id="radialGradient2403" gradientUnits="userSpaceOnUse" cy="19.031" cx="11.25" gradientTransform="matrix(1.4062 0 0 .38670 -3.8197 13.523)" r="8.0625">
   <stop id="stop2487" style="stop-color:#0d0d0d" offset="0"/>
   <stop id="stop2489" style="stop-color:#0d0d0d;stop-opacity:0" offset="1"/>
  </radialGradient>
  <linearGradient id="linearGradient2400" y2="34.225" gradientUnits="userSpaceOnUse" x2="24.104" gradientTransform="matrix(.89889 0 0 .89347 -9.4637 -8.566)" y1="15.181" x1="24.104">
   <stop id="stop2266" style="stop-color:#d7e866" offset="0"/>
   <stop id="stop2268" style="stop-color:#8cab2a" offset="1"/>
  </linearGradient>
  <linearGradient id="linearGradient2858" y2="45.69" gradientUnits="userSpaceOnUse" x2="24.139" gradientTransform="matrix(.53994 0 0 .53668 -.84892 -.50620)" y1="6.5317" x1="24.139">
   <stop id="stop4224" style="stop-color:#fff" offset="0"/>
   <stop id="stop4226" style="stop-color:#fff;stop-opacity:0" offset="1"/>
  </linearGradient>
  <linearGradient id="linearGradient2836" y2="27.495" xlink:href="#linearGradient4168" gradientUnits="userSpaceOnUse" x2="23.878" gradientTransform="matrix(.89889 0 0 .89347 -9.4633 14.434)" y1="18.541" x1="23.878"/>
  <linearGradient id="linearGradient2833" y2="32.619" xlink:href="#linearGradient7916" gradientUnits="userSpaceOnUse" x2="23.796" gradientTransform="matrix(.53994 0 0 .53668 -.84847 22.494)" y1="6.5317" x1="24.139"/>
  <radialGradient id="radialGradient2927" gradientUnits="userSpaceOnUse" cy="19.031" cx="11.25" gradientTransform="matrix(1.4062 0 0 .37209 -3.8192 37.919)" r="8.0625">
   <stop id="stop2487-2" style="stop-color:#0d0d0d" offset="0"/>
   <stop id="stop2489-5" style="stop-color:#0d0d0d;stop-opacity:0" offset="1"/>
  </radialGradient>
  <linearGradient id="linearGradient2941" y2="22" xlink:href="#linearGradient3203" gradientUnits="userSpaceOnUse" x2="11.192" y1="3" x1="11.192"/>
  <radialGradient id="radialGradient3751" xlink:href="#linearGradient3203" gradientUnits="userSpaceOnUse" cy="29.375" cx="30.083" gradientTransform="matrix(1.7143 2.2388e-7 -1.4926e-7 1.1429 -21.071 -4.0714)" r="3.5"/>
  <linearGradient id="linearGradient3771" y2="33.5" xlink:href="#linearGradient7916" gradientUnits="userSpaceOnUse" x2="32.5" y1="28.5" x1="30.5"/>
  <radialGradient id="radialGradient3785" xlink:href="#linearGradient4168" gradientUnits="userSpaceOnUse" cy="29.375" cx="30.083" gradientTransform="matrix(1.7143 2.2388e-7 -1.4926e-7 1.1429 -21.071 -4.0714)" r="3.5"/>
  <linearGradient id="linearGradient3836" y2="3" gradientUnits="userSpaceOnUse" x2="8" y1="22" x1="13">
   <stop id="stop2788" style="stop-color:#1f4b6a" offset="0"/>
   <stop id="stop2790" style="stop-color:#4083c2" offset="1"/>
  </linearGradient>
  <linearGradient id="linearGradient4168">
   <stop id="stop4170" style="stop-color:#f8cd70" offset="0"/>
   <stop id="stop4172" style="stop-color:#cc9110" offset="1"/>
  </linearGradient>
 </defs>
 <g id="g3939">
  <g id="layer1" transform="translate(24,-1)">
   <path id="path1361" style="opacity:.4;fill:url(#radialGradient2410)" d="m33.278 34.941a10.319 2.3202 0 1 1 -20.639 0 10.319 2.3202 0 1 1 20.639 0z" transform="matrix(1.1629 0 0 .96975 -14.698 -12.134)"/>
   <path id="text1314" style="stroke-linejoin:round;stroke:url(#linearGradient3836);fill:url(#linearGradient3217)" d="m21.5 17.8-5.501-5.303 5.293-5.5558-3.816-3.4412-5.448 5.2941-5.5578-5.2941-3.9702 3.5677 5.5583 5.4063-5.5583 5.32 3.9702 3.706 5.5518-5.559 5.565 5.559 3.913-3.7z"/>
   <path id="path7076" style="opacity:.4;stroke:url(#linearGradient3167);stroke-linecap:square;fill:none" d="m19.904 6.9841-2.409-2.1005-5.495 5.3094-5.5-5.3791-2.5 2.2592"/>
   <path id="path3165" style="opacity:.4;stroke:url(#linearGradient2419);fill:none" d="m20.398 18.05-5.4574-5.2579m-5.9157 0.2152-5.5611 5.3112"/>
  </g>
  <g id="layer1-3" transform="translate(-.029550 -1)">
   <path id="path2621" style="opacity:.3;fill:url(#radialGradient2403)" d="m23.337 20.882c0 1.722-5.075 3.118-11.337 3.118-6.2615 0-11.337-1.396-11.337-3.118-0.00045-1.722 5.0755-3.118 11.337-3.118s11.337 1.3959 11.337 3.1178z"/>
   <path id="path2262" style="stroke-linejoin:round;fill-rule:evenodd;stroke:#699536;fill:url(#linearGradient2400)" d="m8.5664 8.4948v-5.9948h6.9336v5.9948h6v7.0052h-6v6h-6.9397l-0.027869-6h-6.0324v-7.0052h6.0664z"/>
   <path id="path2272" style="opacity:.4;stroke:url(#linearGradient2858);fill:none" d="m9.5 9.4948v-5.9948h5v5.9948h6v5.0052h-6v6h-5v-6h-6v-5.0052h6z"/>
  </g>
  <g id="g3906">
   <g id="g2929" transform="translate(24,24)">
    <path id="path2931" style="opacity:.4;fill:url(#radialGradient2410)" d="m33.278 34.941a10.319 2.3202 0 1 1 -20.639 0 10.319 2.3202 0 1 1 20.639 0z" transform="matrix(1.1629 0 0 .96975 -14.698 -12.134)"/>
    <path id="path2933" style="stroke-linejoin:round;stroke:#4d4d4d;fill:url(#linearGradient2941)" d="m15.999 12.197 5.293-5.2558-3.816-3.4412-5.448 5.2941-3.9697 3.6799-5.5583 5.32 3.9702 3.706 5.5518-5.559 3.977-3.744z"/>
    <path id="path2937" style="opacity:.4;stroke:url(#linearGradient2419);fill:none" d="m19.904 6.9841-2.409-2.1005-5.495 5.3094-2.9747 2.814-5.5611 5.311"/>
   </g>
   <path id="path2969" style="stroke-linejoin:round;stroke:#606060;stroke-linecap:round;stroke-miterlimit:10;fill:url(#radialGradient3751)" d="m34 31a3 3 0 1 1 -6 0 3 3 0 1 1 6 0z" transform="translate(-.5 -.5)"/>
   <path id="path3763" style="opacity:.4;stroke-linejoin:round;stroke:url(#linearGradient3771);stroke-linecap:round;stroke-miterlimit:10;fill:none" d="m32.957 31a1.9566 2.0472 0 1 1 -3.9132 0 1.9566 2.0472 0 1 1 3.9132 0z" transform="translate(-.5 -.5)"/>
   <path id="path3773" style="stroke-linejoin:round;stroke:#606060;stroke-linecap:round;stroke-miterlimit:10;fill:url(#radialGradient3751)" d="m34 31a3 3 0 1 1 -6 0 3 3 0 1 1 6 0z" transform="translate(9.5,11.5)"/>
   <path id="path3775" style="opacity:.4;stroke-linejoin:round;stroke:url(#linearGradient3771);stroke-linecap:round;stroke-miterlimit:10;fill:none" d="m32.957 31a1.9566 2.0472 0 1 1 -3.9132 0 1.9566 2.0472 0 1 1 3.9132 0z" transform="translate(9.5,11.5)"/>
  </g>
  <g id="g3930">
   <path id="path2621-9" style="opacity:.3;fill:url(#radialGradient2927)" d="m23.338 45c0 1.6569-5.0759 3-11.337 3-6.2621 0-11.338-1.343-11.338-3-0.000001-1.6569 5.0759-3 11.337-3 6.2615 0 11.337 1.3431 11.337 3z"/>
   <path id="path2262-4" style="stroke-linejoin:round;fill-rule:evenodd;stroke:#bf8407;fill:url(#linearGradient2836)" d="m21.5 32.495v5.005h-19v-5.005h19z"/>
   <path id="path2272-6" style="opacity:.4;stroke:url(#linearGradient2833);fill:none" d="m20.5 33.495v3.005h-17v-3.005h17z"/>
   <path id="path3781" style="stroke-linejoin:round;stroke:#bf8407;stroke-linecap:round;stroke-miterlimit:10;fill:url(#radialGradient3785)" d="m34 31a3 3 0 1 1 -6 0 3 3 0 1 1 6 0z" transform="translate(-19.5,-3.5)"/>
   <path id="path3783" style="opacity:.4;stroke-linejoin:round;stroke:url(#linearGradient3771);stroke-linecap:round;stroke-miterlimit:10;fill:none" d="m32.957 31a1.9566 2.0472 0 1 1 -3.9132 0 1.9566 2.0472 0 1 1 3.9132 0z" transform="translate(-19.5,-3.5)"/>
   <path id="path3789" style="stroke-linejoin:round;stroke:#bf8407;stroke-linecap:round;stroke-miterlimit:10;fill:url(#radialGradient3785)" d="m34 31a3 3 0 1 1 -6 0 3 3 0 1 1 6 0z" transform="translate(-19.5,11.5)"/>
   <path id="path3791" style="opacity:.4;stroke-linejoin:round;stroke:url(#linearGradient3771);stroke-linecap:round;stroke-miterlimit:10;fill:none" d="m32.957 31a1.9566 2.0472 0 1 1 -3.9132 0 1.9566 2.0472 0 1 1 3.9132 0z" transform="translate(-19.5,11.5)"/>
  </g>
 </g>
</svg>

<?xml version="1.0" encoding="UTF-8" standalone="no"?>
<!-- Created with Inkscape (http://www.inkscape.org/) -->

<svg
   xmlns:dc="http://purl.org/dc/elements/1.1/"
   xmlns:cc="http://creativecommons.org/ns#"
   xmlns:rdf="http://www.w3.org/1999/02/22-rdf-syntax-ns#"
   xmlns:svg="http://www.w3.org/2000/svg"
   xmlns="http://www.w3.org/2000/svg"
   xmlns:xlink="http://www.w3.org/1999/xlink"
   xmlns:inkscape="http://www.inkscape.org/namespaces/inkscape"
   version="1.0"
   width="48"
   height="48"
   id="svg2">
  <metadata
     id="metadata75">
    <rdf:RDF>
      <cc:Work
         rdf:about="">
        <dc:format>image/svg+xml</dc:format>
        <dc:type
           rdf:resource="http://purl.org/dc/dcmitype/StillImage" />
      </cc:Work>
    </rdf:RDF>
  </metadata>
  <defs
     id="defs4">
    <linearGradient
       id="linearGradient2091">
      <stop
         id="stop2093"
         style="stop-color:#000000;stop-opacity:0.39216"
         offset="0" />
      <stop
         id="stop3169"
         style="stop-color:#000000;stop-opacity:0.31373"
         offset="0.5" />
      <stop
         id="stop2095"
         style="stop-color:#000000;stop-opacity:0"
         offset="1" />
    </linearGradient>
    <radialGradient
       cx="23.070999"
       cy="35.126999"
       r="10.319"
       id="radialGradient2410"
       xlink:href="#linearGradient2091"
       gradientUnits="userSpaceOnUse"
       gradientTransform="matrix(0.91481,0.01265,-0.008215,0.21356,2.2539,27.189)" />
    <linearGradient
       id="linearGradient3203">
      <stop
         id="stop3205"
         style="stop-color:#777976;stop-opacity:1"
         offset="0" />
      <stop
         id="stop3207"
         style="stop-color:#565755;stop-opacity:1"
         offset="1" />
    </linearGradient>
    <linearGradient
       x1="11"
       y1="3"
       x2="16"
       y2="22"
       id="linearGradient3217"
       gradientUnits="userSpaceOnUse">
      <stop
         id="stop2778"
         style="stop-color:#8badea;stop-opacity:1"
         offset="0" />
      <stop
         id="stop2780"
         style="stop-color:#6396cd;stop-opacity:1"
         offset="0.26238" />
      <stop
         id="stop2782"
         style="stop-color:#3b7caf;stop-opacity:1"
         offset="0.66093999" />
      <stop
         id="stop2784"
         style="stop-color:#194c70;stop-opacity:1"
         offset="1" />
    </linearGradient>
    <linearGradient
       x1="36.011002"
       y1="13.023"
       x2="16.330999"
       y2="32.702"
       id="linearGradient3167"
       xlink:href="#linearGradient7916"
       gradientUnits="userSpaceOnUse"
       gradientTransform="matrix(0.53153,-0.53096,0.53153,0.53096,-14.042,11.965)" />
    <linearGradient
       id="linearGradient7916">
      <stop
         id="stop7918"
         style="stop-color:#ffffff;stop-opacity:1"
         offset="0" />
      <stop
         id="stop7920"
         style="stop-color:#ffffff;stop-opacity:0"
         offset="1" />
    </linearGradient>
    <linearGradient
       x1="28.448999"
       y1="20.584"
       x2="16.330999"
       y2="32.702"
       id="linearGradient2419"
       xlink:href="#linearGradient7916"
       gradientUnits="userSpaceOnUse"
       gradientTransform="matrix(0.53153,-0.53096,0.53153,0.53096,-14.578,12.233)" />
    <radialGradient
       cx="11.25"
       cy="19.031"
       r="8.0625"
       id="radialGradient2403"
       gradientUnits="userSpaceOnUse"
       gradientTransform="matrix(1.4062,0,0,0.3867,-3.8197,13.523)">
      <stop
         id="stop2487"
         style="stop-color:#0d0d0d;stop-opacity:1"
         offset="0" />
      <stop
         id="stop2489"
         style="stop-color:#0d0d0d;stop-opacity:0"
         offset="1" />
    </radialGradient>
    <linearGradient
       x1="24.104"
       y1="15.181"
       x2="24.104"
       y2="34.224998"
       id="linearGradient2400"
       gradientUnits="userSpaceOnUse"
       gradientTransform="matrix(0.89889,0,0,0.89347,-9.4637,-8.566)">
      <stop
         id="stop2266"
         style="stop-color:#d7e866;stop-opacity:1"
         offset="0" />
      <stop
         id="stop2268"
         style="stop-color:#8cab2a;stop-opacity:1"
         offset="1" />
    </linearGradient>
    <linearGradient
       x1="24.139"
       y1="6.5317001"
       x2="24.139"
       y2="45.689999"
       id="linearGradient2858"
       gradientUnits="userSpaceOnUse"
       gradientTransform="matrix(0.53994,0,0,0.53668,-0.84892,-0.5062)">
      <stop
         id="stop4224"
         style="stop-color:#ffffff;stop-opacity:1"
         offset="0" />
      <stop
         id="stop4226"
         style="stop-color:#ffffff;stop-opacity:0"
         offset="1" />
    </linearGradient>
    <linearGradient
       x1="23.878"
       y1="18.541"
       x2="23.878"
       y2="27.495001"
       id="linearGradient2836"
       xlink:href="#linearGradient4168"
       gradientUnits="userSpaceOnUse"
       gradientTransform="matrix(0.89889,0,0,0.89347,-9.4633,14.434)" />
    <linearGradient
       x1="24.139"
       y1="6.5317001"
       x2="23.796"
       y2="32.618999"
       id="linearGradient2833"
       xlink:href="#linearGradient7916"
       gradientUnits="userSpaceOnUse"
       gradientTransform="matrix(0.53994,0,0,0.53668,-0.84847,22.494)" />
    <radialGradient
       cx="11.25"
       cy="19.031"
       r="8.0625"
       id="radialGradient2927"
       gradientUnits="userSpaceOnUse"
       gradientTransform="matrix(1.4062,0,0,0.37209,-3.8192,37.919)">
      <stop
         id="stop2487-2"
         style="stop-color:#0d0d0d;stop-opacity:1"
         offset="0" />
      <stop
         id="stop2489-5"
         style="stop-color:#0d0d0d;stop-opacity:0"
         offset="1" />
    </radialGradient>
    <linearGradient
       x1="11.192"
       y1="3"
       x2="11.192"
       y2="22"
       id="linearGradient2941"
       xlink:href="#linearGradient3203"
       gradientUnits="userSpaceOnUse" />
    <radialGradient
       cx="30.083"
       cy="29.375"
       r="3.5"
       id="radialGradient3751"
       xlink:href="#linearGradient3203"
       gradientUnits="userSpaceOnUse"
       gradientTransform="matrix(1.7143,2.2388e-7,-1.4926e-7,1.1429,-21.071,-4.0714)" />
    <linearGradient
       x1="30.5"
       y1="28.5"
       x2="32.5"
       y2="33.5"
       id="linearGradient3771"
       xlink:href="#linearGradient7916"
       gradientUnits="userSpaceOnUse" />
    <radialGradient
       cx="30.083"
       cy="29.375"
       r="3.5"
       id="radialGradient3785"
       xlink:href="#linearGradient4168"
       gradientUnits="userSpaceOnUse"
       gradientTransform="matrix(1.7143,2.2388e-7,-1.4926e-7,1.1429,-21.071,-4.0714)" />
    <linearGradient
       x1="13"
       y1="22"
       x2="8"
       y2="3"
       id="linearGradient3836"
       gradientUnits="userSpaceOnUse">
      <stop
         id="stop2788"
         style="stop-color:#1f4b6a;stop-opacity:1"
         offset="0" />
      <stop
         id="stop2790"
         style="stop-color:#4083c2;stop-opacity:1"
         offset="1" />
    </linearGradient>
    <linearGradient
       id="linearGradient4168">
      <stop
         id="stop4170"
         style="stop-color:#f8cd70;stop-opacity:1"
         offset="0" />
      <stop
         id="stop4172"
         style="stop-color:#cc9110;stop-opacity:1"
         offset="1" />
    </linearGradient>
  </defs>
  <g
     id="g3939">
    <g
       transform="translate(24,-1)"
       id="layer1">
      <path
         d="m 33.278,34.941 a 10.3195,2.3203124 0 1 1 -20.639,0 10.3195,2.3203124 0 1 1 20.639,0 z"
         inkscape:connector-curvature="0"
         transform="matrix(1.1629,0,0,0.96975,-14.698,-12.134)"
         id="path1361"
         style="opacity:0.4;fill:url(#radialGradient2410)" />
      <path
         d="M 21.5,17.8 15.999,12.497 21.292,6.9412 17.476,3.5 12.028,8.7941 6.4702,3.5 2.5,7.0677 8.0583,12.474 2.5,17.794 6.4702,21.5 12.022,15.941 17.587,21.5 21.5,17.8 z"
         inkscape:connector-curvature="0"
         id="text1314"
         style="fill:url(#linearGradient3217);stroke:url(#linearGradient3836);stroke-linejoin:round" />
      <path
         d="M 19.904,6.9841 17.495,4.8836 12,10.193 6.5,4.8139 4,7.0731"
         inkscape:connector-curvature="0"
         id="path7076"
         style="opacity:0.4;fill:none;stroke:url(#linearGradient3167);stroke-linecap:square" />
      <path
         d="M 20.398,18.05 14.9406,12.7921 M 9.0249,13.0073 3.4638,18.3185"
         inkscape:connector-curvature="0"
         id="path3165"
         style="opacity:0.4;fill:none;stroke:url(#linearGradient2419)" />
    </g>
    <g
       transform="translate(-0.02955,-1)"
       id="layer1-3">
      <path
         d="M 23.337,20.882 C 23.337,22.604 18.262,24 12,24 5.7385,24 0.663,22.604 0.663,20.882 0.66255,19.16 5.7385,17.764 12,17.764 c 6.2615,0 11.337,1.3959 11.337,3.1178 z"
         inkscape:connector-curvature="0"
         id="path2621"
         style="opacity:0.3;fill:url(#radialGradient2403)" />
      <path
         d="M 8.5664,8.4948 V 2.5 H 15.5 v 5.9948 h 6 V 15.5 h -6 v 6 H 8.5603 l -0.027869,-6 h -6.0324 V 8.4948 h 6.0664 z"
         inkscape:connector-curvature="0"
         id="path2262"
         style="fill:url(#linearGradient2400);fill-rule:evenodd;stroke:#699536;stroke-linejoin:round" />
      <path
         d="M 9.5,9.4948 V 3.5 h 5 v 5.9948 h 6 V 14.5 h -6 v 6 h -5 v -6 h -6 V 9.4948 h 6 z"
         inkscape:connector-curvature="0"
         id="path2272"
         style="opacity:0.4;fill:none;stroke:url(#linearGradient2858)" />
    </g>
    <g
       id="g3906">
      <g
         transform="translate(24,24)"
         id="g2929">
        <path
           d="m 33.278,34.941 a 10.3195,2.3203124 0 1 1 -20.639,0 10.3195,2.3203124 0 1 1 20.639,0 z"
           inkscape:connector-curvature="0"
           transform="matrix(1.1629,0,0,0.96975,-14.698,-12.134)"
           id="path2931"
           style="opacity:0.4;fill:url(#radialGradient2410)" />
        <path
           d="M 15.999,12.197 21.292,6.9412 17.476,3.5 12.028,8.7941 8.0583,12.474 2.5,17.794 6.4702,21.5 12.022,15.941 15.999,12.197 z"
           inkscape:connector-curvature="0"
           id="path2933"
           style="fill:url(#linearGradient2941);stroke:#4d4d4d;stroke-linejoin:round" />
        <path
           d="M 19.904,6.9841 17.495,4.8836 12,10.193 9.0253,13.007 3.4642,18.318"
           inkscape:connector-curvature="0"
           id="path2937"
           style="opacity:0.4;fill:none;stroke:url(#linearGradient2419)" />
      </g>
      <path
         d="m 34,31 a 3,3 0 1 1 -6,0 3,3 0 1 1 6,0 z"
         inkscape:connector-curvature="0"
         transform="translate(-0.5,-0.5)"
         id="path2969"
         style="fill:url(#radialGradient3751);stroke:#606060;stroke-linecap:round;stroke-linejoin:round;stroke-miterlimit:10" />
      <path
         d="m 32.957,31 a 1.9566,2.0472 0 1 1 -3.9132,0 1.9566,2.0472 0 1 1 3.9132,0 z"
         inkscape:connector-curvature="0"
         transform="translate(-0.5,-0.5)"
         id="path3763"
         style="opacity:0.4;fill:none;stroke:url(#linearGradient3771);stroke-linecap:round;stroke-linejoin:round;stroke-miterlimit:10" />
      <path
         d="m 34,31 a 3,3 0 1 1 -6,0 3,3 0 1 1 6,0 z"
         inkscape:connector-curvature="0"
         transform="translate(9.5,11.5)"
         id="path3773"
         style="fill:url(#radialGradient3751);stroke:#606060;stroke-linecap:round;stroke-linejoin:round;stroke-miterlimit:10" />
      <path
         d="m 32.957,31 a 1.9566,2.0472 0 1 1 -3.9132,0 1.9566,2.0472 0 1 1 3.9132,0 z"
         inkscape:connector-curvature="0"
         transform="translate(9.5,11.5)"
         id="path3775"
         style="opacity:0.4;fill:none;stroke:url(#linearGradient3771);stroke-linecap:round;stroke-linejoin:round;stroke-miterlimit:10" />
    </g>
    <g
       id="g3930">
      <path
         d="m 23.338,45 c 0,1.6569 -5.0759,3 -11.337,3 C 5.7389,48 0.663,46.657 0.663,45 0.662999,43.3431 5.7389,42 12,42 c 6.2615,0 11.337,1.3431 11.337,3 z"
         inkscape:connector-curvature="0"
         id="path2621-9"
         style="opacity:0.3;fill:url(#radialGradient2927)" />
      <path
         d="M 21.5,32.495 V 37.5 h -19 v -5.005 h 19 z"
         inkscape:connector-curvature="0"
         id="path2262-4"
         style="fill:url(#linearGradient2836);fill-rule:evenodd;stroke:#bf8407;stroke-linejoin:round" />
      <path
         d="M 20.5,33.495 V 36.5 h -17 v -3.005 h 17 z"
         inkscape:connector-curvature="0"
         id="path2272-6"
         style="opacity:0.4;fill:none;stroke:url(#linearGradient2833)" />
      <path
         d="m 34,31 a 3,3 0 1 1 -6,0 3,3 0 1 1 6,0 z"
         inkscape:connector-curvature="0"
         transform="translate(-19.5,-3.5)"
         id="path3781"
         style="fill:url(#radialGradient3785);stroke:#bf8407;stroke-linecap:round;stroke-linejoin:round;stroke-miterlimit:10" />
      <path
         d="m 32.957,31 a 1.9566,2.0472 0 1 1 -3.9132,0 1.9566,2.0472 0 1 1 3.9132,0 z"
         inkscape:connector-curvature="0"
         transform="translate(-19.5,-3.5)"
         id="path3783"
         style="opacity:0.4;fill:none;stroke:url(#linearGradient3771);stroke-linecap:round;stroke-linejoin:round;stroke-miterlimit:10" />
      <path
         d="m 34,31 a 3,3 0 1 1 -6,0 3,3 0 1 1 6,0 z"
         inkscape:connector-curvature="0"
         transform="translate(-19.5,11.5)"
         id="path3789"
         style="fill:url(#radialGradient3785);stroke:#bf8407;stroke-linecap:round;stroke-linejoin:round;stroke-miterlimit:10" />
      <path
         d="m 32.957,31 a 1.9566,2.0472 0 1 1 -3.9132,0 1.9566,2.0472 0 1 1 3.9132,0 z"
         inkscape:connector-curvature="0"
         transform="translate(-19.5,11.5)"
         id="path3791"
         style="opacity:0.4;fill:none;stroke:url(#linearGradient3771);stroke-linecap:round;stroke-linejoin:round;stroke-miterlimit:10" />
    </g>
  </g>
</svg>
